!!!ONB: MCCC : ICD0078_00 : Extracted Monophonic Melody
!!!COM: Debussy, Claude
!!!OTL: Rêverie
!!!SCT: CD 76 ; L.68
!!!ODT: 1890///
**kern
*staff1
*clefG2
*k[b-]
*F:
*M4/4
4gg
4gg
4dd[
=4
2dd]
8ee
8ff
4gg
=5
8ee
8dd
6ee
12cc
4ee
4dd[
=6
2.dd]
4b-
=7
4dd
8ee
8ff
4ff
4cc[
=8
2.cc]
4g
=9
4a
2.a
=10
1a[
=11
4a]
4aa
4aa
4ee[
=12
2ee]
8cc
8ee
4dd
=13
8b-
8g
4aa
4aa
4ee[
=14
2ee]
8cc
8ee
4dd
=15
8b-
8g
4gg
4gg
4dd[
=16
2dd]
8b-
8dd
4cc
=17
8a
8g
4a
8e
8a
4f
=18
8d
8f
2d
4c[
=19
4c]
4ccc
4ccc
4gg[
=20
2gg]
8aa
8bb-
4ccc
=21
8aa
8gg
6aa
12ff
4aa
4gg[
=22
2.gg]
4ee-
=23
4gg
8aa
8bb-
4bb-
4ff[
=24
2.ff]
4aa
=25
4bb-
8ccc
8ddd
4ddd
4aa[
=26
2.aa]
4bb-
=27
4ddd
2fff
4ccc#[
=28
4ccc#]
4r
8dd
8ee
4ff
=29
8ff
8aa
2fff
4ccc#[
=30
4ccc#]
4r
8dd
8ee
4ff
=31
8ff
8aa
4ff
8d
8e
4f
=32
8f
8a
2f
4d[
=33
4d]
8d
8d
4cc
4cc
=34
1cc[
=35
4cc]
8c
16c
16c
4B-
4G[
=36
2G]
8A
8B-
4c
=37
8c
8e-
2.d
=38
1d[
=39
4d]
8c
16c
16c
4B-
4G[
=40
2G]
8A
8B-
4c
=41
8c
8e-
2.e[
=42
2.e]
4ee-
=43
4ee
4gg
8ff
8ee
4dd[
=44
4dd]
2dd
4ee
=45
4ff
8ff
16ff
16ff
4ee
4cc[
=46
2.cc]
4dd
=47
4ee
4ee
8dd
8cc
4b-[
=48
4b-]
2bb-
4aa
=49
4gg
4ff
2ff
=50
1ff[
=51
4ff]
4r
2r
=52
1r
=53
4r
4f
4e
4e
=54
12f
12a
12f
4e
4d
4c[
=55
4c]
4r
2r
=56
1r
=57
4r
4e
4c#
4c#
=58
4e
4f#
4a-
4e[
=59
4e]
4ff#
4aa-
4ee
=60
4ccc#
4ff#
12aa-
12ff#
12aa-
4ee
=61
4b
4a-
4b
4a-
=62
4e
2f#
4cc#[
=63
4cc#]
4ff#
4aa-
4ee
=64
4ccc#
4ff#
12aa-
12ff#
12aa-
4ee
=65
4bb
4ccc#
4eee
4eee-
=66
4bb
4ccc#
4eee
4fff#
=67
4bb
4ccc#
4eee
4eee-
=68
4bb
4ccc#
4eee
4fff#
=69
4bb
2.ggg
=70
4aa
4gg[
8gg]
8cc
4g[
=71
8g]
8A
4dd
4ee
4cc
=72
4aa
4dd
12ee
12dd
12ee
4cc[
=73
4cc]
4dd
12ee
12dd
12ee
4cc[
=74
4cc]
4r
2r
=75
*M2/4
2r
=76
*M4/4
4r
4gg
4gg
4dd[
=77
2dd]
8ee
8ff
4gg
=78
8ee
8dd
6ee
12cc
4ee
4dd[
=79
2.dd]
4b-
=80
4dd
8ee
8ff
4ff
4cc[
=81
2.cc]
4g
=82
4a
2.a
=83
1a[
=84
4a]
4aa
4aa
4ee[
=85
2ee]
8cc
8ee
4dd
=86
8b-
8g
4aa
4aa
4ee[
=87
2ee]
8cc
8ee
4dd
=88
8b-
8g
4gg
4gg
4dd[
=89
2dd]
8b-
8dd
4cc
=90
8a
8f
4gg
4gg
4dd[
=91
2dd]
8b-
8dd
4cc
=92
4dd
4b-
4a
4a
=93
4b-
4b-
4a
4a[
=94
4a]
4b-
4a
4a
=95
12b-
12dd
12b-
4a
4g
4f[
=96
4f]
4bb-
4aa
4aa
=97
4bb-
4bb-
4aa
4aa[
=98
4aa]
4bb-
4aa
4aa
=99
12bb-
12ddd
12bb-
2aa
4gg
=100
4aaa
2.aaa
=101
1aaa[
=102
4aaa]
4r
2r
=103
1r
==
*-
